packages/core/src/svgs/tokens/branded/CHAT.svg

<svg width="24" height="24" viewBox="0 0 24 24" fill="none" xmlns="http://www.w3.org/2000/svg">
<path d="M12.2799 19.229C12.9833 19.1808 13.6808 19.0685 14.3637 18.8933C15.207 19.1474 16.0973 19.2048 16.9661 19.0615C17.0006 19.0559 17.035 19.0535 17.07 19.0535C17.38 19.0535 17.7869 19.2309 18.38 19.6059V18.9896C18.3798 18.8824 18.4087 18.777 18.4634 18.6846C18.5182 18.5923 18.597 18.5166 18.6912 18.4653C18.9487 18.3215 19.1886 18.1553 19.4081 17.9728C20.2719 17.2502 20.76 16.2871 20.76 15.2665C20.76 14.9294 20.7063 14.5943 20.6012 14.2741C20.8618 13.7934 21.0731 13.2884 21.2281 12.7647C21.7285 13.5035 21.9972 14.3748 22 15.2672C22 16.6533 21.3462 17.9466 20.215 18.8922C20.026 19.0498 19.8272 19.1952 19.62 19.3278V20.7696C19.62 21.2659 19.04 21.5508 18.6313 21.2558C18.2442 20.9704 17.8438 20.7037 17.4312 20.4565C17.3126 20.3867 17.1894 20.3251 17.0624 20.2722C16.723 20.3222 16.3749 20.3484 16.0238 20.3484C14.6118 20.3484 13.3069 19.9302 12.2799 19.229ZM4.81375 16.3453C3.02999 14.8535 2 12.8184 2 10.639C2 6.18529 6.25812 2.62468 11.4569 2.62468C16.6568 2.62468 20.915 6.18468 20.915 10.6384C20.915 15.0928 16.6562 18.6521 11.4569 18.6521C10.8731 18.6521 10.295 18.6084 9.72874 18.519C9.48374 18.5758 8.50498 19.1503 7.09374 20.1672C6.58311 20.5358 5.85811 20.1796 5.85811 19.5591V17.0996C5.49309 16.8725 5.14371 16.6208 4.81375 16.3453ZM9.76316 17.0027C9.80618 17.0027 9.84993 17.006 9.89309 17.0128C10.4031 17.0978 10.9269 17.1409 11.4569 17.1409C15.8488 17.1409 19.3638 14.2022 19.3638 10.639C19.3638 7.07655 15.8488 4.1378 11.4574 4.1378C7.06686 4.1378 3.55 7.07655 3.55 10.639C3.55 12.3615 4.37124 13.984 5.82311 15.1978C6.18812 15.5021 6.58874 15.7783 7.01874 16.019C7.25999 16.1534 7.40873 16.404 7.40873 16.674V18.0927C8.52498 17.3533 9.25872 17.0027 9.76316 17.0027Z" fill="url(#paint0_linear_364_9432)"/>
<path d="M7.62499 11.9996C8.31535 11.9996 8.87499 11.4399 8.87499 10.7497C8.87499 10.0593 8.31535 9.49963 7.62499 9.49963C6.93463 9.49963 6.375 10.0593 6.375 10.7497C6.375 11.4399 6.93463 11.9996 7.62499 11.9996Z" fill="url(#paint1_linear_364_9432)"/>
<path d="M11.6874 11.9996C12.3778 11.9996 12.9375 11.4399 12.9375 10.7497C12.9375 10.0593 12.3778 9.49963 11.6874 9.49963C10.9971 9.49963 10.4375 10.0593 10.4375 10.7497C10.4375 11.4399 10.9971 11.9996 11.6874 11.9996Z" fill="url(#paint2_linear_364_9432)"/>
<path d="M15.7497 12.001C16.4401 12.001 16.9998 11.4413 16.9998 10.7509C16.9998 10.0605 16.4401 9.50096 15.7497 9.50096C15.0595 9.50096 14.4998 10.0605 14.4998 10.7509C14.4998 11.4413 15.0595 12.001 15.7497 12.001Z" fill="url(#paint3_linear_364_9432)"/>
<defs>
<linearGradient id="paint0_linear_364_9432" x1="11.9999" y1="2.62468" x2="11.9999" y2="21.3754" gradientUnits="userSpaceOnUse">
<stop stop-color="#1BC9FA"/>
<stop offset="1" stop-color="#1778F0"/>
</linearGradient>
<linearGradient id="paint1_linear_364_9432" x1="12" y1="2.62467" x2="12" y2="21.3754" gradientUnits="userSpaceOnUse">
<stop stop-color="#1BC9FA"/>
<stop offset="1" stop-color="#1778F0"/>
</linearGradient>
<linearGradient id="paint2_linear_364_9432" x1="12" y1="2.62467" x2="12" y2="21.3754" gradientUnits="userSpaceOnUse">
<stop stop-color="#1BC9FA"/>
<stop offset="1" stop-color="#1778F0"/>
</linearGradient>
<linearGradient id="paint3_linear_364_9432" x1="11.9997" y1="2.62469" x2="11.9997" y2="21.3754" gradientUnits="userSpaceOnUse">
<stop stop-color="#1BC9FA"/>
<stop offset="1" stop-color="#1778F0"/>
</linearGradient>
</defs>
</svg>

<svg xmlns="http://www.w3.org/2000/svg" width="24" height="24" fill="none" viewBox="0 0 24 24">
    <path fill="url(#CHAT__a)" d="M12.28 19.229q1.056-.072 2.084-.336a5.8 5.8 0 0 0 2.602.168 1 1 0 0 1 .104-.008c.31 0 .717.178 1.31.553v-.616a.6.6 0 0 1 .311-.525 4.7 4.7 0 0 0 .717-.492c.864-.723 1.352-1.686 1.352-2.706 0-.338-.054-.673-.159-.993.26-.48.472-.986.627-1.51.5.74.77 1.61.772 2.503 0 1.386-.654 2.68-1.785 3.625a6 6 0 0 1-.595.436v1.442c0 .496-.58.78-.989.486a15 15 0 0 0-1.2-.8 3 3 0 0 0-.369-.184q-.51.075-1.038.076c-1.412 0-2.717-.418-3.744-1.119m-7.466-2.884C3.03 14.854 2 12.818 2 10.64c0-4.454 4.258-8.014 9.457-8.014s9.458 3.56 9.458 8.013c0 4.455-4.259 8.014-9.458 8.014q-.877 0-1.728-.133c-.245.057-1.224.631-2.635 1.648-.51.369-1.236.013-1.236-.608V17.1a9 9 0 0 1-1.044-.754m4.95.658q.063 0 .13.01a9.5 9.5 0 0 0 1.563.128c4.392 0 7.907-2.939 7.907-6.502s-3.515-6.501-7.907-6.501c-4.39 0-7.907 2.939-7.907 6.501 0 1.723.821 3.345 2.273 4.559q.55.458 1.196.821c.241.134.39.385.39.655v1.419c1.116-.74 1.85-1.09 2.354-1.09"/>
    <path fill="url(#CHAT__b)" d="M7.625 12a1.25 1.25 0 1 0 0-2.5 1.25 1.25 0 0 0 0 2.5"/>
    <path fill="url(#CHAT__c)" d="M11.687 12a1.25 1.25 0 1 0 0-2.5 1.25 1.25 0 0 0 0 2.5"/>
    <path fill="url(#CHAT__d)" d="M15.75 12.001a1.25 1.25 0 1 0 0-2.5 1.25 1.25 0 0 0 0 2.5"/>
    <defs>
        <linearGradient id="CHAT__a" x1="12" x2="12" y1="2.625" y2="21.375" gradientUnits="userSpaceOnUse">
            <stop stop-color="#1BC9FA"/>
            <stop offset="1" stop-color="#1778F0"/>
        </linearGradient>
        <linearGradient id="CHAT__b" x1="12" x2="12" y1="2.625" y2="21.375" gradientUnits="userSpaceOnUse">
            <stop stop-color="#1BC9FA"/>
            <stop offset="1" stop-color="#1778F0"/>
        </linearGradient>
        <linearGradient id="CHAT__c" x1="12" x2="12" y1="2.625" y2="21.375" gradientUnits="userSpaceOnUse">
            <stop stop-color="#1BC9FA"/>
            <stop offset="1" stop-color="#1778F0"/>
        </linearGradient>
        <linearGradient id="CHAT__d" x1="12" x2="12" y1="2.625" y2="21.375" gradientUnits="userSpaceOnUse">
            <stop stop-color="#1BC9FA"/>
            <stop offset="1" stop-color="#1778F0"/>
        </linearGradient>
    </defs>
</svg>
